src/svgs/arrow-right.svg

<svg width="14" height="10" viewBox="0 0 14 10" fill="none" xmlns="http://www.w3.org/2000/svg">
<path d="M8.9835 0.140979C8.79553 -0.0469931 8.4996 -0.0469931 8.31163 0.140979C8.13001 0.322601 8.13001 0.624881 8.31163 0.80608L11.7184 4.21287H0.476474C0.214408 4.21287 -0.000659068 4.42116 -0.000659068 4.68322C-0.000659068 4.94528 0.214408 5.16035 0.476474 5.16035H11.7184L8.31163 8.5608C8.13001 8.74873 8.13001 9.05147 8.31163 9.23267C8.4996 9.4206 8.79553 9.4206 8.9835 9.23267L13.1968 5.01937C13.3784 4.83775 13.3784 4.53547 13.1968 4.35427L8.9835 0.140979Z" fill="white"/>
</svg>

<svg width="14" height="10" fill="none" xmlns="http://www.w3.org/2000/svg"><path d="M8.983.141a.47.47 0 0 0-.671 0 .474.474 0 0 0 0 .665l3.406 3.407H.476a.473.473 0 1 0 0 .947h11.242l-3.406 3.4a.482.482 0 0 0 0 .673.47.47 0 0 0 .671 0l4.214-4.214a.474.474 0 0 0 0-.665L8.984.141Z" fill="#fff"/></svg>
